X: 32468
T: Pitten Gardener's Rant
R: strathspey
M: 4/4
K: Dmajor
A,/|A,<DD>D (3FGA (3Bcd|(3BAG (3FED D<EE>A,|A,<DD>D (3FGA (3Bcd|(3efg (3abc' d'<dd3:|
|:d/|d'>db>d a>da<d'|(3Bce (3dcB c<AA>d|d'>db>d a>da<d'|(3efg (3abc' d'<dd3:|

